geofa_plugin/geofa_symboler/Friluftsliv, punkt/NATURBASE.svg

<svg xmlns="http://www.w3.org/2000/svg" width="5.5mm" height="5.5mm" viewBox="0 0 15.591 15.591">
  <rect width="15.591" height="15.591" rx="7.795" fill="#427c7f"/>
  <path d="M12.48,11.606H11.6V10.331h.878a.35.35,0,0,0,0-.7H10.024a.35.35,0,1,0,0,.7H10.9v1.275H5.622V9.5a.21.21,0,0,1,.21-.21H7.926a.211.211,0,0,0,.183-.316S6.466,6.122,6.447,6.092A.058.058,0,0,1,6.494,6h.647a.211.211,0,0,0,.183-.316L5.406,2.363a.211.211,0,0,0-.365,0L3.123,5.686A.21.21,0,0,0,3.305,6h.649A.06.06,0,0,1,4,6.084L2.338,8.971a.21.21,0,0,0,.182.316h2.1a.2.2,0,0,1,.2.2v2.116H3.379a.35.35,0,0,0,0,.7h9.1a.35.35,0,0,0,0-.7Z" fill="#fff"/>
</svg>

<?xml version="1.0" encoding="UTF-8"?>
<svg xmlns="http://www.w3.org/2000/svg" viewBox="0 0 15.59 15.59">
  <defs>
    <style>
      .cls-1 {
        fill: #071f39;
      }

      .cls-1, .cls-2 {
        stroke-width: 0px;
      }

      .cls-2 {
        fill: #fff;
      }
    </style>
  </defs>
  <g id="Cirkel">
    <rect class="cls-1" x="0" y="0" width="15.59" height="15.59" rx="7.8" ry="7.8"/>
  </g>
  <g id="ICONS">
    <path class="cls-2" d="M12.48,11.61h-.88v-1.28h.88c.19,0,.35-.16.35-.35s-.16-.35-.35-.35h-2.46c-.19,0-.35.16-.35.35s.16.35.35.35h.88v1.28h-5.28v-2.11c0-.12.09-.21.21-.21h2.09c.16,0,.26-.18.18-.32,0,0-1.64-2.85-1.66-2.88-.02-.03,0-.09.05-.09h.65c.16,0,.26-.18.18-.32l-1.92-3.32c-.08-.14-.28-.14-.36,0l-1.92,3.32c-.08.14.02.32.18.32,0,0,.6,0,.65,0,.04,0,.07.06.05.08-.01.03-1.67,2.89-1.67,2.89-.08.14.02.32.18.32h2.1c.11,0,.2.09.2.2v2.12h-1.45c-.19,0-.35.16-.35.35s.16.35.35.35h9.1c.19,0,.35-.16.35-.35s-.16-.35-.35-.35Z"/>
  </g>
</svg>
